svg/emoji_u1f699.svg

<?xml version="1.0" encoding="UTF-8"?>
<svg width="128" height="128" enable-background="new 0 0 128 128" xmlns="http://www.w3.org/2000/svg" xmlns:xlink="http://www.w3.org/1999/xlink"><linearGradient id="c" x1="64.021" x2="64.021" y1="28.551" y2="111.53" gradientUnits="userSpaceOnUse"><stop stop-color="#eee" offset=".0031467"/><stop stop-color="#ECECEC" offset=".4759"/><stop stop-color="#E5E5E5" offset=".6769"/><stop stop-color="#D8D8D8" offset=".8263"/><stop stop-color="#C7C7C7" offset=".9494"/><stop stop-color="#BDBDBD" offset="1"/></linearGradient><path d="m113.96 28h-85.34c-1.64 0-4.4-0.21-6.12 2.61 0 0-5.88 8.91-6.44 9.72-1.62 2.35-0.06 3.67 2.76 3.67h19.76c-0.78 0-1.6 0.87-2.28 1.78-4.84 6.46-15.67 24.24-17.11 26.06-0.1 0.12-6.54 2.65-9.87 4.64-1.32 0.79-2.06 2.52-2.24 4.28l-2.91 24.44c-0.76 4.83 2.01 6.8 6.34 6.8h45.5 1.03 61.92c2.78 0 5.04-2.05 5.04-4.83v-68.93c0-5.54-4.49-10.24-10.04-10.24z" fill="url(#c)"/><defs><path id="b" d="m124 48.91c0-2.79-2.27-5.06-5.06-5.06h-77.79c-0.72 0-3.02-0.01-4.85 2.03-5.55 6.21-14.81 24.11-16.25 25.93-0.1 0.12-7.41 2.7-10.73 4.69-1.32 0.8-2.06 2.51-2.24 4.27l-2.91 24.48c-0.76 4.83 2.01 6.84 6.34 6.84h108.43c2.79 0 5.06-2.27 5.06-5.06v-58.12z"/></defs><clipPath id="a"><use xlink:href="#b"/></clipPath><g clip-path="url(#a)"><path d="m122.99 92.18-1.62 0.01c-1.04 0-1.57-0.6-1.9-2.23l-0.95-7.5c-0.34-2.23 0.84-2.24 1.88-2.24l2.54-0.01c1.78-0.01 1.9 1 1.9 2.23l0.03 7.5c0.01 1.23 0.1 2.24-1.88 2.24z" fill="#F44336"/><path d="m12.83 90.79h-10c-1.1 0-2-0.9-2-2v-4.17c0-1.1 0.9-2 2-2h13.67c1.67 0 2.77 1.41 2.23 2.94l-1.08 2.63c-0.84 2.15-1.75 2.6-4.82 2.6z" fill="#FFEB3B"/></g><g clip-path="url(#a)"><path d="m122.99 92.18-1.62 0.01c-1.04 0-1.57-0.6-1.9-2.23l-0.95-7.5c-0.34-2.23 0.84-2.24 1.88-2.24l2.54-0.01c1.78-0.01 1.9 1 1.9 2.23l0.03 7.5c0.01 1.23 0.1 2.24-1.88 2.24z" fill="#F44336"/></g><path d="m42.28 56.19h9.33c1.37 0 2.48 1.11 2.48 2.48v15.05c0 1.37-1.11 2.48-2.48 2.48h-18.65c-2.08 0-3.23-2.4-1.93-4.02l9.7-14.88c0.46-0.61 0.79-1.11 1.55-1.11z" fill="#546E7A"/><path d="m78.17 76.11h-11.97c-2.21 0-4-1.79-4-4v-16.09c0-2.21 1.79-4 4-4h11.97c2.21 0 4 1.79 4 4v16.08c0 2.22-1.79 4.01-4 4.01z" fill="#546E7A"/><path d="m106.29 76.11h-12.04c-2.21 0-4-1.79-4-4v-16.09c0-2.21 1.79-4 4-4h12.04c2.21 0 4 1.79 4 4v16.08c0 2.22-1.79 4.01-4 4.01z" fill="#546E7A"/><path d="m41.82 38.68h-11.82c-1.1 0-2-0.9-2-2v-1.1c0-1.1 0.9-2 2-2h11.82c1.1 0 2 0.9 2 2v1.1c0 1.11-0.9 2-2 2z" fill="#546E7A"/><path d="m124 37.98h-77.12v-3.99h76.18s0.43 0.81 0.69 2c0.25 1.18 0.25 1.99 0.25 1.99z" fill="#78909C"/><g opacity=".2"><path d="m51.6 58.19c0.26 0 0.48 0.21 0.48 0.48v15.05c0 0.26-0.21 0.48-0.48 0.48h-18.64c-0.25 0-0.37-0.15-0.43-0.27s-0.1-0.31 0.06-0.51c0.04-0.05 0.08-0.1 0.11-0.16l9.65-14.81 0.06-0.07c0.05-0.06 0.1-0.13 0.15-0.19h9.04m0-2h-9.33c-0.75 0-1.08 0.5-1.55 1.09l-9.7 14.88c-1.3 1.62-0.14 4.02 1.93 4.02h18.65c1.37 0 2.48-1.11 2.48-2.48v-15.03c0-1.37-1.11-2.48-2.48-2.48z" fill="#424242"/></g><g opacity=".2"><path d="m78.17 54.02c1.1 0 2 0.9 2 2v16.08c0 1.1-0.9 2-2 2h-11.97c-1.1 0-2-0.9-2-2v-16.08c0-1.1 0.9-2 2-2h11.97m0-2h-11.97c-2.21 0-4 1.79-4 4v16.08c0 2.21 1.79 4 4 4h11.97c2.21 0 4-1.79 4-4v-16.08c0-2.21-1.79-4-4-4z" fill="#424242"/></g><g opacity=".2"><path d="m106.29 54.02c1.1 0 2 0.9 2 2v16.08c0 1.1-0.9 2-2 2h-12.04c-1.1 0-2-0.9-2-2v-16.08c0-1.1 0.9-2 2-2h12.04m0-2h-12.04c-2.21 0-4 1.79-4 4v16.08c0 2.21 1.79 4 4 4h12.04c2.21 0 4-1.79 4-4v-16.08c0-2.21-1.79-4-4-4z" fill="#424242"/></g><g opacity=".2"><path d="m28.17 31h0.36 0.34 85.35c3.74 0 6.79 3.25 6.79 7.24v68.93c0 1.15-0.67 1.83-1.79 1.83h-108.46c-1.5 0-2.63-0.3-3.08-0.83-0.51-0.59-0.41-1.82-0.3-2.5 0.01-0.04 0.01-0.07 0.02-0.11l2.91-24.48c0.12-1.13 0.54-1.86 0.8-2.01 2.24-1.34 6.26-3.06 8.2-3.88 1.68-0.72 1.98-0.85 2.48-1.48 0.62-0.78 2.17-3.22 5.09-7.82 3.86-6.08 9.59-14.76 12.41-18.75 0.73-1.17 2.53-1.85 2.53-3.27 0-1.66-1.34-2.85-3-2.85h-19.36c1.59-2 5.11-8.05 5.6-8.83 0.55-0.91 1.3-1.19 3.11-1.19m0-3c-1.7 0-4.17 0.16-5.66 2.61 0 0-5.74 8.72-6.44 9.72-1.7 2.44-0.07 3.67 3 3.67h19.51c-0.78 0-1.49 0.86-2.17 1.76-4.97 6.3-15.69 24.14-17.13 25.96-0.1 0.12-6.63 2.8-9.95 4.79-1.33 0.79-2.07 2.5-2.25 4.26l-2.91 24.48c-0.76 4.83 2.26 6.75 6.59 6.75h45.5 1.03 61.92c2.78 0 4.79-2.05 4.79-4.83v-68.93c0-5.54-4.24-10.24-9.79-10.24h-85.34-0.7z" fill="#424242"/></g><polygon points="110.36 83.07 33.68 83.07 30.47 90.82 110.36 90.82" fill="#78909C"/><circle cx="26.09" cy="114.02" r="10" fill="#4E342E"/><g opacity=".2"><path d="m26.09 105.02c4.96 0 9 4.04 9 9s-4.04 9-9 9-9-4.04-9-9 4.04-9 9-9m0-1c-5.52 0-10 4.48-10 10s4.48 10 10 10 10-4.48 10-10-4.48-10-10-10z" fill="#eee"/></g><circle cx="26.09" cy="114.02" r="5.65" fill="#BDBDBD"/><circle cx="106.19" cy="114.02" r="10" fill="#4E342E"/><g opacity=".2"><path d="m106.19 105.02c4.96 0 9 4.04 9 9s-4.04 9-9 9-9-4.04-9-9 4.04-9 9-9m0-1c-5.52 0-10 4.48-10 10s4.48 10 10 10 10-4.48 10-10-4.47-10-10-10z" fill="#eee"/></g><circle cx="106.19" cy="114.02" r="5.65" fill="#BDBDBD"/></svg>

<svg width="128" height="128" style="enable-background:new 0 0 128 128;" xmlns="http://www.w3.org/2000/svg" xmlns:xlink="http://www.w3.org/1999/xlink">
  <linearGradient id="SVGID_1_" gradientUnits="userSpaceOnUse" x1="64.0214" x2="64.0214" y1="28.5514" y2="111.5304">
    <stop offset="3.146701e-03" style="stop-color:#EEEEEE"/>
    <stop offset="0.4759" style="stop-color:#ECECEC"/>
    <stop offset="0.6769" style="stop-color:#E5E5E5"/>
    <stop offset="0.8263" style="stop-color:#D8D8D8"/>
    <stop offset="0.9494" style="stop-color:#C7C7C7"/>
    <stop offset="1" style="stop-color:#BDBDBD"/>
  </linearGradient>
  <path d="M113.96,28H72.93H51.67H28.62c-1.64,0-4.4-0.21-6.12,2.61c0,0-5.88,8.91-6.44,9.72 C14.44,42.68,16,44,18.82,44h19.76c-0.78,0-1.6,0.87-2.28,1.78c-4.84,6.46-15.67,24.24-17.11,26.06c-0.1,0.12-6.54,2.65-9.87,4.64 C8,77.27,7.26,79,7.08,80.76L4.17,105.2c-0.76,4.83,2.01,6.8,6.34,6.8h45.5c0.33,0,0.68,0,1.03,0h61.92c2.78,0,5.04-2.05,5.04-4.83 v-0.13V48.91V38.24C124,32.7,119.51,28,113.96,28z" style="fill:url(#SVGID_1_);"/>
  <g>
    <defs>
      <path id="SVGID_2_" d="M124,48.91c0-2.79-2.27-5.06-5.06-5.06H41.15c-0.72,0-3.02-0.01-4.85,2.03 c-5.55,6.21-14.81,24.11-16.25,25.93c-0.1,0.12-7.41,2.7-10.73,4.69C8,77.3,7.26,79.01,7.08,80.77l-2.91,24.48 c-0.76,4.83,2.01,6.84,6.34,6.84h108.43c2.79,0,5.06-2.27,5.06-5.06V48.91z"/>
    </defs>
    <clipPath id="SVGID_3_">
      <use style="overflow:visible;" xlink:href="#SVGID_2_"/>
    </clipPath>
    <g style="clip-path:url(#SVGID_3_);">
      <g>
        <path d="M122.99,92.18l-1.62,0.01c-1.04,0-1.57-0.6-1.9-2.23l-0.95-7.5c-0.34-2.23,0.84-2.24,1.88-2.24 l2.54-0.01c1.78-0.01,1.9,1,1.9,2.23l0.03,7.5C124.88,91.17,124.97,92.18,122.99,92.18z" style="fill:#F44336;"/>
        <path d="M12.83,90.79h-10c-1.1,0-2-0.9-2-2v-4.17c0-1.1,0.9-2,2-2H16.5c1.67,0,2.77,1.41,2.23,2.94 l-1.08,2.63C16.81,90.34,15.9,90.79,12.83,90.79z" style="fill:#FFEB3B;"/>
      </g>
    </g>
    <g style="clip-path:url(#SVGID_3_);">
      <path d="M122.99,92.18l-1.62,0.01c-1.04,0-1.57-0.6-1.9-2.23l-0.95-7.5c-0.34-2.23,0.84-2.24,1.88-2.24 l2.54-0.01c1.78-0.01,1.9,1,1.9,2.23l0.03,7.5C124.88,91.17,124.97,92.18,122.99,92.18z" style="fill:#F44336;"/>
    </g>
  </g>
  <path d="M42.28,56.19h9.33c1.37,0,2.48,1.11,2.48,2.48v15.05c0,1.37-1.11,2.48-2.48,2.48H32.96 c-2.08,0-3.23-2.4-1.93-4.02l9.7-14.88C41.19,56.69,41.52,56.19,42.28,56.19z" style="fill:#546E7A;"/>
  <path d="M78.17,76.11H66.2c-2.21,0-4-1.79-4-4V56.02c0-2.21,1.79-4,4-4h11.97c2.21,0,4,1.79,4,4v16.08 C82.17,74.32,80.38,76.11,78.17,76.11z" style="fill:#546E7A;"/>
  <path d="M106.29,76.11H94.25c-2.21,0-4-1.79-4-4V56.02c0-2.21,1.79-4,4-4h12.04c2.21,0,4,1.79,4,4v16.08 C110.29,74.32,108.5,76.11,106.29,76.11z" style="fill:#546E7A;"/>
  <path d="M41.82,38.68H30c-1.1,0-2-0.9-2-2v-1.1c0-1.1,0.9-2,2-2h11.82c1.1,0,2,0.9,2,2v1.1 C43.82,37.79,42.92,38.68,41.82,38.68z" style="fill:#546E7A;"/>
  <path d="M124,37.98H46.88v-3.99h76.18c0,0,0.43,0.81,0.69,2C124,37.17,124,37.98,124,37.98z" style="fill:#78909C;"/>
  <g style="opacity:0.2;">
    <path d="M51.6,58.19c0.26,0,0.48,0.21,0.48,0.48v15.05c0,0.26-0.21,0.48-0.48,0.48H32.96 c-0.25,0-0.37-0.15-0.43-0.27c-0.06-0.12-0.1-0.31,0.06-0.51c0.04-0.05,0.08-0.1,0.11-0.16l9.65-14.81l0.06-0.07 c0.05-0.06,0.1-0.13,0.15-0.19H51.6 M51.6,56.19h-9.33c-0.75,0-1.08,0.5-1.55,1.09l-9.7,14.88c-1.3,1.62-0.14,4.02,1.93,4.02H51.6 c1.37,0,2.48-1.11,2.48-2.48V58.67C54.08,57.3,52.97,56.19,51.6,56.19L51.6,56.19z" style="fill:#424242;"/>
  </g>
  <g style="opacity:0.2;">
    <path d="M78.17,54.02c1.1,0,2,0.9,2,2v16.08c0,1.1-0.9,2-2,2H66.2c-1.1,0-2-0.9-2-2V56.02c0-1.1,0.9-2,2-2 H78.17 M78.17,52.02H66.2c-2.21,0-4,1.79-4,4v16.08c0,2.21,1.79,4,4,4h11.97c2.21,0,4-1.79,4-4V56.02 C82.17,53.81,80.38,52.02,78.17,52.02L78.17,52.02z" style="fill:#424242;"/>
  </g>
  <g style="opacity:0.2;">
    <path d="M106.29,54.02c1.1,0,2,0.9,2,2v16.08c0,1.1-0.9,2-2,2H94.25c-1.1,0-2-0.9-2-2V56.02c0-1.1,0.9-2,2-2 H106.29 M106.29,52.02H94.25c-2.21,0-4,1.79-4,4v16.08c0,2.21,1.79,4,4,4h12.04c2.21,0,4-1.79,4-4V56.02 C110.29,53.81,108.5,52.02,106.29,52.02L106.29,52.02z" style="fill:#424242;"/>
  </g>
  <g style="opacity:0.2;">
    <path d="M28.17,31l0.36,0l0.34,0h23.05h21.27h41.03c3.74,0,6.79,3.25,6.79,7.24v10.67v58.13v0.13 c0,1.15-0.67,1.83-1.79,1.83H57.29h-1.03h-45.5c-1.5,0-2.63-0.3-3.08-0.83c-0.51-0.59-0.41-1.82-0.3-2.5 c0.01-0.04,0.01-0.07,0.02-0.11l2.91-24.48c0.12-1.13,0.54-1.86,0.8-2.01c2.24-1.34,6.26-3.06,8.2-3.88 c1.68-0.72,1.98-0.85,2.48-1.48c0.62-0.78,2.17-3.22,5.09-7.82c3.86-6.08,9.59-14.76,12.41-18.75c0.73-1.17,2.53-1.85,2.53-3.27 c0-1.66-1.34-2.85-3-2.85H19.46c1.59-2,5.11-8.05,5.6-8.83C25.61,31.28,26.36,31,28.17,31L28.17,31 M28.17,28 c-1.7,0-4.17,0.16-5.66,2.61c0,0-5.74,8.72-6.44,9.72C14.37,42.77,16,44,19.07,44h19.51c-0.78,0-1.49,0.86-2.17,1.76 c-4.97,6.3-15.69,24.14-17.13,25.96c-0.1,0.12-6.63,2.8-9.95,4.79C8,77.3,7.26,79.01,7.08,80.77l-2.91,24.48 c-0.76,4.83,2.26,6.75,6.59,6.75h45.5c0.33,0,0.68,0,1.03,0h61.92c2.78,0,4.79-2.05,4.79-4.83v-0.13V48.91V38.24 c0-5.54-4.24-10.24-9.79-10.24H73.18H51.92H28.87C28.66,28,28.42,28,28.17,28L28.17,28z" style="fill:#424242;"/>
  </g>
  <polygon points="110.36,83.07 33.68,83.07 30.47,90.82 110.36,90.82 " style="fill:#78909C;"/>
  <g>
    <g>
      <circle cx="26.09" cy="114.02" r="10" style="fill:#4E342E;"/>
      <g style="opacity:0.2;">
        <path d="M26.09,105.02c4.96,0,9,4.04,9,9s-4.04,9-9,9s-9-4.04-9-9S21.13,105.02,26.09,105.02 M26.09,104.02c-5.52,0-10,4.48-10,10c0,5.52,4.48,10,10,10s10-4.48,10-10C36.09,108.5,31.61,104.02,26.09,104.02L26.09,104.02z" style="fill:#EEEEEE;"/>
      </g>
    </g>
    <circle cx="26.09" cy="114.02" r="5.65" style="fill:#BDBDBD;"/>
  </g>
  <g>
    <g>
      <circle cx="106.19" cy="114.02" r="10" style="fill:#4E342E;"/>
      <g style="opacity:0.2;">
        <path d="M106.19,105.02c4.96,0,9,4.04,9,9s-4.04,9-9,9s-9-4.04-9-9S101.23,105.02,106.19,105.02 M106.19,104.02c-5.52,0-10,4.48-10,10c0,5.52,4.48,10,10,10s10-4.48,10-10C116.19,108.5,111.72,104.02,106.19,104.02 L106.19,104.02z" style="fill:#EEEEEE;"/>
      </g>
    </g>
    <circle cx="106.19" cy="114.02" r="5.65" style="fill:#BDBDBD;"/>
  </g>
</svg>
